X: 6374
T: Castle Bray
R: strathspey
M: 4/4
K: Amajor
A2 (3Bcd ed c<A|A,B, =CE D<=G, B,G,|A,B, =CD E<A, CD|EA ce dB GB|
A2 (3Bcd ed c<A|A,B, =CE D<=G, B,G,|A,B, =CD EA ^ce|dB GB c<A AB|
ce ac dc BA|GA Ba (3gfe (3dcB|ce ac dc BA|GB dB c<A AB|
ce ac dc BA|GA Bc de fg|a2 ga (3fga ec|1 df ec Aa ga:|2 df ec A4:|
"Ed Reavy's original"
A2 (3Bcd edcA|A,B, =CE DB, =G,B,|A,2 (3B,=CD ED ^CD|EA ce dB =GB|
A2 (3Bcd ed cA|A,B, =CE DB, =G,B,|A,B, =CD EA ^ce|dB =GB A2 Ad|
ce ac dc BA|GA Ba ge dB|ce ac dc BA|GA Bd cA AB|
ce ac dc BA|GA Bc d2 fg|(3aba (3gag (3fgf ec|df ec Aa ga:|

